X:696
T:Sorbet Shuffle
C:Andrew Swaine
S:Colin Hume's website,  colinhume.com  - chords can also be printed below the stave.
Q:1/2=120
M:2/2
L:1/8
N:originally in G
K:C
cd | "C"e3d cedc | "G"dedc B2"/E"G2 | "F"A3B "C/E"c2ee | "Dm7"fedc "G7"d2cd |
"C"e3d cedc | "G"dedc B2"/E"G2 | "F"A3B "Dm7"c2ee | "G7"dcBd "C"c2 :|
K:Cm
|: cd | "Cm"e3d cedc | "Gm/Bb"dcde f2"/D"^f2 | "Eb"g3f egfe | "Dm7"fffe "G7"dfed |
"Cm"e3d cedc | "Gm/Bb"dcde f2"/D"^f2 | "Eb"g3f egfe | "G7"f=ed=B "C"c2 :|

